dist/svgs/team-stamp.svg

<svg xmlns="http://www.w3.org/2000/svg" viewBox="0 0 512 512"><path d="M468 290q20 7 32 23.5t12 37.5v54H0v-54q0-21 12-37.5T44 290l148-49V122l-49-16q-15-5-15-21V21h256v64q0 16-15 21l-49 16v119zM43 448h426v43H43v-43z"/></svg>

<?xml version="1.0" encoding="UTF-8" standalone="no"?><svg   xmlns:svg="http://www.w3.org/2000/svg"   xmlns="http://www.w3.org/2000/svg"   version="1.1"   width="512"   height="512"   viewBox="0 0 512 512">  <path     d="M468 290Q488 297 500 313.5T512 351V405H0V351Q0 330 12 313.5T44 290L192 241V122L143 106Q128 101 128 85V21H384V85Q384 101 369 106L320 122V241zM43 448H469V491H43V448z"     id="team-stamp" /></svg>
